raw/symbols/rbn.svg

<svg width="42" height="42" viewBox="0 0 42 42" fill="none" xmlns="http://www.w3.org/2000/svg">
<g clip-path="url(#clip0_9004_369919)">
<rect width="42" height="42" rx="21" fill="#FC0A54"/>
<circle cx="21" cy="21" r="21" fill="#FC0A54"/>
<path fill-rule="evenodd" clip-rule="evenodd" d="M21.0154 9.08594L32.8118 21.8653L21.3795 33.6932L19.5675 31.9418L29.3455 21.8255L20.9819 12.7649L3.00875 31.5368L2.89939 31.6623C2.40953 30.8036 2.13471 30.311 1.69189 29.2867L1.72399 29.2348L21.0154 9.08594Z" fill="#F3F3F3"/>
</g>
<defs>
<clipPath id="clip0_9004_369919">
<rect width="42" height="42" rx="21" fill="white"/>
</clipPath>
</defs>
</svg>

<svg xmlns="http://www.w3.org/2000/svg" width="42" height="42" fill="none"><g clip-path="url(#a)"><rect width="42" height="42" fill="#FC0A54" rx="21"/><circle cx="21" cy="21" r="21" fill="#FC0A54"/><path fill="#F3F3F3" fill-rule="evenodd" d="m21.015 9.086 11.797 12.78L21.38 33.692l-1.813-1.751 9.779-10.116-8.364-9.061L3.009 31.537l-.11.125c-.49-.858-.764-1.351-1.207-2.375l.032-.052 19.291-20.15Z" clip-rule="evenodd"/></g><defs><clipPath id="a"><rect width="42" height="42" fill="#fff" rx="21"/></clipPath></defs></svg>
